Simply-Cyan-Circles/scalable/actions/mail-outbox.svg

<svg xmlns="http://www.w3.org/2000/svg" width="24" height="24"><path style="line-height:normal;font-variant-ligatures:normal;font-variant-position:normal;font-variant-caps:normal;font-variant-numeric:normal;font-variant-alternates:normal;font-feature-settings:normal;text-indent:0;text-align:start;text-decoration-line:none;text-decoration-style:solid;text-decoration-color:#000;text-transform:none;text-orientation:mixed;shape-padding:0;isolation:auto;mix-blend-mode:normal" d="M8.82 2.3l-1.2 1.21v1.45l-5.87.02V7.1h2.14v12.82c0 .96.81 1.78 1.78 1.77l12.72-.1a1.8 1.8 0 0 0 1.78-1.77V7.1h2.08V4.92l-5.87.02V3.5l-1.2-1.2zm.7 1.7h4.96l.2.21v.73l-5.37.02V4.2zM6 7.1h12.02v2.12H5.99z" font-weight="400" overflow="visible" color="#000" font-family="sans-serif" white-space="normal" fill="#5beedc" fill-rule="evenodd"/></svg>

<?xml version="1.0" encoding="UTF-8" standalone="no"?>
<svg
   xmlns:dc="http://purl.org/dc/elements/1.1/"
   xmlns:cc="http://creativecommons.org/ns#"
   xmlns:rdf="http://www.w3.org/1999/02/22-rdf-syntax-ns#"
   xmlns:svg="http://www.w3.org/2000/svg"
   xmlns="http://www.w3.org/2000/svg"
   xmlns:sodipodi="http://sodipodi.sourceforge.net/DTD/sodipodi-0.dtd"
   xmlns:inkscape="http://www.inkscape.org/namespaces/inkscape"
   width="24"
   height="24"
   version="1.1"
   id="svg4"
   sodipodi:docname="mail-outbox.svg"
   inkscape:version="0.92.4 (5da689c313, 2019-01-14)">
  <metadata
     id="metadata10">
    <rdf:RDF>
      <cc:Work
         rdf:about="">
        <dc:format>image/svg+xml</dc:format>
        <dc:type
           rdf:resource="http://purl.org/dc/dcmitype/StillImage" />
        <dc:title></dc:title>
      </cc:Work>
    </rdf:RDF>
  </metadata>
  <defs
     id="defs8" />
  <sodipodi:namedview
     pagecolor="#ffffff"
     bordercolor="#666666"
     borderopacity="1"
     objecttolerance="10"
     gridtolerance="10"
     guidetolerance="10"
     inkscape:pageopacity="0"
     inkscape:pageshadow="2"
     inkscape:window-width="1078"
     inkscape:window-height="480"
     id="namedview6"
     showgrid="false"
     inkscape:zoom="9.8333333"
     inkscape:cx="-0.81355932"
     inkscape:cy="12"
     inkscape:window-x="0"
     inkscape:window-y="28"
     inkscape:window-maximized="0"
     inkscape:current-layer="svg4" />
  <path
     style="color:#000000;font-weight:400;line-height:normal;font-family:sans-serif;font-variant-ligatures:normal;font-variant-position:normal;font-variant-caps:normal;font-variant-numeric:normal;font-variant-alternates:normal;font-feature-settings:normal;text-indent:0;text-align:start;text-decoration:none;text-decoration-line:none;text-decoration-style:solid;text-decoration-color:#000000;text-transform:none;text-orientation:mixed;white-space:normal;shape-padding:0;overflow:visible;isolation:auto;mix-blend-mode:normal;fill:#5beedc;fill-rule:evenodd"
     d="M 8.82,2.3 7.62,3.51 V 4.96 L 1.75,4.98 V 7.1 h 2.14 v 12.82 c 0,0.96 0.81,1.78 1.78,1.77 l 12.72,-0.1 a 1.8,1.8 0 0 0 1.78,-1.77 V 7.1 h 2.08 V 4.92 L 16.38,4.94 V 3.5 L 15.18,2.3 Z M 9.52,4 h 4.96 l 0.2,0.21 V 4.94 L 9.31,4.96 V 4.2 Z M 6,7.1 H 18.02 V 9.22 H 5.99 Z"
     font-weight="400"
     overflow="visible"
     id="path2"
     inkscape:connector-curvature="0" />
</svg>
